X: 8834
T: Cuilcagh
R: polka
M: 2/4
K: Gmajor
|:A2 A>G|FD D2|FD AD|BA GB|
A2 A>G|FD DB|A/B/d cA|G2 G2:|
|:B2 BA/B/|cB A>G|FD AD|FD Ac|
B2 BA/B/|cB AB/c/|dA BA|G2 G2:|

